images/footer-logo.svg

<svg width="304" height="78" viewBox="0 0 304 78" fill="none" xmlns="http://www.w3.org/2000/svg">
<path d="M105.116 24.4429C108.67 24.4429 111.775 25.1473 114.433 26.556C117.09 27.9647 119.139 29.9497 120.58 32.511C122.053 35.0402 122.789 37.9697 122.789 41.2993C122.789 44.597 122.053 47.5265 120.58 50.0877C119.139 52.649 117.074 54.634 114.385 56.0427C111.727 57.4514 108.638 58.1558 105.116 58.1558H92.4858V24.4429H105.116ZM104.588 51.0482C107.693 51.0482 110.111 50.1998 111.839 48.5029C113.568 46.8061 114.433 44.4049 114.433 41.2993C114.433 38.1938 113.568 35.7766 111.839 34.0477C110.111 32.3189 107.693 31.4544 104.588 31.4544H100.698V51.0482H104.588ZM152.639 44.3249C152.639 45.0932 152.591 45.8936 152.495 46.7261H133.909C134.038 48.3909 134.566 49.6715 135.494 50.568C136.455 51.4324 137.623 51.8646 139 51.8646C141.049 51.8646 142.474 51.0002 143.274 49.2713H152.014C151.566 51.0322 150.75 52.617 149.565 54.0257C148.413 55.4344 146.956 56.539 145.195 57.3394C143.434 58.1398 141.465 58.54 139.288 58.54C136.663 58.54 134.326 57.9797 132.277 56.8591C130.228 55.7386 128.627 54.1378 127.474 52.0567C126.322 49.9757 125.745 47.5425 125.745 44.7571C125.745 41.9717 126.306 39.5385 127.426 37.4574C128.579 35.3764 130.18 33.7756 132.229 32.655C134.278 31.5345 136.631 30.9742 139.288 30.9742C141.881 30.9742 144.187 31.5185 146.204 32.607C148.221 33.6956 149.789 35.2483 150.91 37.2653C152.063 39.2823 152.639 41.6355 152.639 44.3249ZM144.235 42.1638C144.235 40.7551 143.754 39.6345 142.794 38.8021C141.833 37.9697 140.633 37.5535 139.192 37.5535C137.815 37.5535 136.647 37.9537 135.686 38.7541C134.758 39.5545 134.182 40.691 133.957 42.1638H144.235ZM173.299 31.0702C176.437 31.0702 178.934 32.0948 180.791 34.1438C182.68 36.1608 183.624 38.9462 183.624 42.4999V58.1558H175.46V43.6045C175.46 41.8116 174.996 40.4189 174.068 39.4264C173.139 38.4339 171.891 37.9377 170.322 37.9377C168.753 37.9377 167.504 38.4339 166.576 39.4264C165.647 40.4189 165.183 41.8116 165.183 43.6045V58.1558H156.971V31.3584H165.183V34.9122C166.016 33.7276 167.136 32.7991 168.545 32.1268C169.954 31.4224 171.538 31.0702 173.299 31.0702ZM204.266 51.1923V58.1558H200.088C197.111 58.1558 194.79 57.4354 193.125 55.9947C191.46 54.5219 190.628 52.1368 190.628 48.8391V38.1778H187.362V31.3584H190.628V24.8271H198.84V31.3584H204.218V38.1778H198.84V48.9352C198.84 49.7356 199.032 50.3118 199.416 50.664C199.8 51.0162 200.441 51.1923 201.337 51.1923H204.266ZM207.208 44.7091C207.208 41.9557 207.72 39.5385 208.745 37.4574C209.801 35.3764 211.226 33.7756 213.019 32.655C214.812 31.5345 216.813 30.9742 219.022 30.9742C220.911 30.9742 222.56 31.3584 223.968 32.1268C225.409 32.8952 226.514 33.9037 227.282 35.1523V31.3584H235.494V58.1558H227.282V54.3619C226.482 55.6105 225.361 56.619 223.92 57.3874C222.512 58.1558 220.863 58.54 218.974 58.54C216.797 58.54 214.812 57.9797 213.019 56.8591C211.226 55.7065 209.801 54.0897 208.745 52.0087C207.72 49.8956 207.208 47.4624 207.208 44.7091ZM227.282 44.7571C227.282 42.7081 226.706 41.0912 225.553 39.9067C224.433 38.7221 223.056 38.1298 221.423 38.1298C219.79 38.1298 218.398 38.7221 217.245 39.9067C216.124 41.0592 215.564 42.66 215.564 44.7091C215.564 46.7581 216.124 48.3909 217.245 49.6075C218.398 50.7921 219.79 51.3844 221.423 51.3844C223.056 51.3844 224.433 50.7921 225.553 49.6075C226.706 48.4229 227.282 46.8061 227.282 44.7571ZM245.565 28.573C244.124 28.573 242.94 28.1568 242.011 27.3244C241.115 26.4599 240.667 25.4034 240.667 24.1548C240.667 22.8742 241.115 21.8176 242.011 20.9852C242.94 20.1208 244.124 19.6886 245.565 19.6886C246.974 19.6886 248.126 20.1208 249.023 20.9852C249.951 21.8176 250.416 22.8742 250.416 24.1548C250.416 25.4034 249.951 26.4599 249.023 27.3244C248.126 28.1568 246.974 28.573 245.565 28.573ZM249.647 31.3584V58.1558H241.435V31.3584H249.647ZM263.811 35.8246C264.771 34.3519 265.972 33.1993 267.412 32.3669C268.853 31.5025 270.454 31.0702 272.215 31.0702V39.7626H269.958C267.909 39.7626 266.372 40.2108 265.347 41.1073C264.323 41.9717 263.811 43.5085 263.811 45.7176V58.1558H255.598V31.3584H263.811V35.8246ZM301.401 44.3249C301.401 45.0932 301.353 45.8936 301.256 46.7261H282.671C282.799 48.3909 283.328 49.6715 284.256 50.568C285.216 51.4324 286.385 51.8646 287.762 51.8646C289.811 51.8646 291.235 51.0002 292.036 49.2713H300.776C300.328 51.0322 299.512 52.617 298.327 54.0257C297.174 55.4344 295.718 56.539 293.957 57.3394C292.196 58.1398 290.227 58.54 288.05 58.54C285.425 58.54 283.087 57.9797 281.038 56.8591C278.989 55.7386 277.389 54.1378 276.236 52.0567C275.083 49.9757 274.507 47.5425 274.507 44.7571C274.507 41.9717 275.067 39.5385 276.188 37.4574C277.341 35.3764 278.941 33.7756 280.99 32.655C283.039 31.5345 285.393 30.9742 288.05 30.9742C290.643 30.9742 292.948 31.5185 294.965 32.607C296.982 33.6956 298.551 35.2483 299.672 37.2653C300.824 39.2823 301.401 41.6355 301.401 44.3249ZM292.996 42.1638C292.996 40.7551 292.516 39.6345 291.556 38.8021C290.595 37.9697 289.395 37.5535 287.954 37.5535C286.577 37.5535 285.409 37.9537 284.448 38.7541C283.52 39.5545 282.943 40.691 282.719 42.1638H292.996Z" fill="#1E84B5"/>
<g clip-path="url(#clip0_107_1101)">
<path fill-rule="evenodd" clip-rule="evenodd" d="M1.39337 15.641C0.823446 17.604 3.10313 20.232 7.47251 22.6383C9.18227 17.889 12.5701 14.0579 17.6677 13.393C24.6334 12.4748 28.0213 15.166 33.8155 13.7729C39.0397 12.5064 42.9658 6.87055 51.7363 4.36923C52.7495 4.08427 53.7627 3.95762 54.7759 3.95762C56.6439 2.27953 57.3405 -0.0634766 57.3405 -0.0634766L57.0555 2.02623C56.4539 6.30063 53.1294 9.62516 48.855 10.2267L46.7653 10.5434L48.855 10.8283C53.1294 11.4299 56.4539 14.7861 57.0555 19.0288L57.3405 21.1185L57.6571 19.0288C58.2587 14.7861 61.5832 11.4299 65.8576 10.8283L67.9473 10.5434C67.9473 10.5434 67.1558 10.9866 66.3642 11.9682C68.0423 15.9576 68.0107 21.1819 64.9394 26.8811C61.5199 33.3085 59.0186 38.2795 57.2138 42.5539C50.5331 42.4272 41.6044 40.7808 31.2192 37.8678C7.37752 31.2504 -3.54594 18.7122 1.39337 15.641ZM42.4593 21.1185L43.1242 21.2135C44.454 21.4035 45.4988 22.4484 45.6888 23.7782L45.7838 24.4114L45.8788 23.7782C46.0687 22.4484 47.1136 21.4035 48.4434 21.2135L49.0767 21.1185L48.4434 21.0236C47.1136 20.8336 46.0687 19.7887 45.8788 18.4589L45.7838 17.794L45.6888 18.4589C45.4988 19.7887 44.454 20.8336 43.1242 21.0236L42.4593 21.1185Z" fill="white"/>
<path d="M69.7832 37.3929C75.704 49.4246 59.5246 53.0974 30.6803 44.2953C22.1316 41.699 13.0762 37.3613 6.36377 32.8652C6.55374 34.385 6.90203 35.8415 7.40862 37.1713C11.7463 48.6014 12.8862 53.9839 12.6645 62.2478C12.4429 71.2082 20.7384 69.0868 24.0629 59.2082C25.7094 54.3006 28.654 53.129 30.4904 52.8758C34.5431 53.0974 35.9046 55.6304 38.1526 61.8995C41.5721 71.3981 51.6407 71.3032 52.5906 60.4747C52.7806 58.7016 52.9705 56.9918 53.2555 55.3454C57.4982 55.6937 61.646 55.3771 65.4455 54.2056C74.6908 51.2926 75.1024 41.9523 69.7832 37.3929Z" fill="#1E84B5"/>
<path d="M65.4463 10.1639C64.1798 8.0742 62.375 6.42776 60.3487 5.35125C59.1138 4.43304 57.784 2.50165 57.7207 2.375C58.4173 6.33278 61.4885 9.43567 65.4463 10.1639Z" fill="white"/>
</g>
<defs>
<clipPath id="clip0_107_1101">
<rect width="73.4563" height="69.0236" fill="white"/>
</clipPath>
</defs>
</svg>

<svg xmlns="http://www.w3.org/2000/svg" width="304" height="78" fill="none" viewBox="0 0 304 78"><path fill="#1e84b5" d="M105.116 24.443q5.33 0 9.317 2.113 3.985 2.113 6.147 5.955 2.21 3.795 2.209 8.788 0 4.947-2.209 8.789-2.162 3.841-6.195 5.955-3.986 2.113-9.269 2.113h-12.63V24.443zm-.528 26.605q4.658 0 7.251-2.545t2.594-7.204q0-4.657-2.594-7.251t-7.251-2.594h-3.89v19.594zm48.051-6.723q0 1.153-.144 2.401h-18.586q.193 2.498 1.585 3.842 1.441 1.296 3.506 1.297 3.074 0 4.274-2.594h8.74a11.8 11.8 0 0 1-2.449 4.755q-1.728 2.112-4.37 3.313-2.642 1.2-5.907 1.201-3.937 0-7.011-1.68-3.073-1.682-4.803-4.803-1.728-3.122-1.729-7.3 0-4.177 1.681-7.3 1.73-3.12 4.803-4.802 3.073-1.68 7.059-1.68 3.89 0 6.916 1.632 3.025 1.633 4.706 4.658 1.73 3.025 1.729 7.06m-8.404-2.161q0-2.114-1.441-3.362t-3.602-1.248q-2.065 0-3.506 1.2-1.392 1.2-1.729 3.41zm29.064-11.094q4.707 0 7.492 3.074 2.833 3.025 2.833 8.356v15.656h-8.164V43.605q0-2.69-1.392-4.179-1.393-1.488-3.746-1.488-2.354 0-3.746 1.488-1.393 1.49-1.393 4.179v14.55h-8.212V31.359h8.212v3.554q1.249-1.776 3.362-2.785 2.113-1.057 4.754-1.057m30.967 20.122v6.964h-4.178q-4.465 0-6.963-2.161-2.497-2.21-2.497-7.156V38.178h-3.266v-6.82h3.266v-6.53h8.212v6.53h5.378v6.82h-5.378v10.757q0 1.2.576 1.729.577.528 1.921.528zm2.942-6.483q0-4.13 1.537-7.252 1.584-3.12 4.274-4.802 2.69-1.68 6.003-1.68 2.834 0 4.946 1.152 2.162 1.153 3.314 3.025v-3.794h8.212v26.798h-8.212v-3.794q-1.2 1.873-3.362 3.025-2.112 1.153-4.946 1.153-3.266 0-5.955-1.68-2.69-1.73-4.274-4.851-1.537-3.17-1.537-7.3m20.074.048q0-3.074-1.729-4.85-1.68-1.777-4.13-1.777-2.449 0-4.178 1.777-1.681 1.728-1.681 4.802 0 3.075 1.681 4.898 1.729 1.777 4.178 1.777 2.45 0 4.13-1.776 1.73-1.778 1.729-4.85m18.283-16.184q-2.161 0-3.554-1.249-1.344-1.296-1.344-3.17 0-1.92 1.344-3.169 1.393-1.296 3.554-1.296 2.113 0 3.458 1.296 1.393 1.25 1.393 3.17 0 1.872-1.393 3.17-1.345 1.248-3.458 1.248m4.082 2.785v26.798h-8.212v-26.8zm14.164 4.467q1.44-2.21 3.601-3.458 2.161-1.297 4.803-1.297v8.693h-2.257q-3.074 0-4.611 1.344-1.536 1.297-1.536 4.61v12.439h-8.213v-26.8h8.213zm37.59 8.5q0 1.153-.145 2.401h-18.585q.192 2.498 1.585 3.842 1.44 1.296 3.506 1.297 3.073 0 4.274-2.594h8.74a11.8 11.8 0 0 1-2.449 4.755q-1.729 2.112-4.37 3.313-2.642 1.2-5.907 1.201-3.938 0-7.012-1.68-3.073-1.682-4.802-4.803-1.73-3.122-1.729-7.3 0-4.177 1.681-7.3 1.729-3.12 4.802-4.802 3.074-1.68 7.06-1.68 3.89 0 6.915 1.632 3.026 1.633 4.707 4.658 1.728 3.025 1.729 7.06m-8.405-2.161q0-2.114-1.44-3.362-1.441-1.248-3.602-1.248-2.065 0-3.506 1.2-1.393 1.2-1.729 3.41z"/><g clip-path="url(#a)"><path fill="#fff" fill-rule="evenodd" d="M1.393 15.641c-.57 1.963 1.71 4.591 6.08 6.997 1.71-4.749 5.097-8.58 10.195-9.245 6.965-.918 10.353 1.773 16.148.38 5.224-1.267 9.15-6.902 17.92-9.404a11.2 11.2 0 0 1 3.04-.411C56.644 2.28 57.34-.063 57.34-.063l-.285 2.09a9.605 9.605 0 0 1-8.2 8.2l-2.09.316 2.09.285a9.64 9.64 0 0 1 8.2 8.2l.285 2.09.317-2.09a9.64 9.64 0 0 1 8.2-8.2l2.09-.285s-.791.444-1.583 1.425c1.678 3.99 1.647 9.214-1.425 14.913-3.42 6.428-5.92 11.398-7.725 15.673-6.68-.127-15.61-1.773-25.995-4.686C7.378 31.25-3.546 18.712 1.393 15.64m41.066 5.478.665.095a3.02 3.02 0 0 1 2.565 2.564l.095.633.095-.633a3.02 3.02 0 0 1 2.564-2.564l.634-.095-.634-.095a3.02 3.02 0 0 1-2.564-2.565l-.095-.665-.095.665a3.02 3.02 0 0 1-2.565 2.565z" clip-rule="evenodd"/><path fill="#1e84b5" d="M69.783 37.393c5.921 12.032-10.258 15.704-39.103 6.902-8.548-2.596-17.604-6.934-24.316-11.43.19 1.52.538 2.977 1.045 4.306 4.337 11.43 5.477 16.813 5.256 25.077-.222 8.96 8.073 6.839 11.398-3.04 1.646-4.907 4.591-6.079 6.427-6.332 4.053.221 5.415 2.754 7.663 9.024 3.42 9.498 13.488 9.403 14.438-1.425.19-1.773.38-3.483.664-5.13 4.243.349 8.391.032 12.19-1.14 9.246-2.912 9.657-12.253 4.338-16.812"/><path fill="#fff" d="M65.446 10.164A13.25 13.25 0 0 0 60.35 5.35c-1.235-.918-2.565-2.85-2.628-2.976a9.6 9.6 0 0 0 7.725 7.789"/></g><defs><clipPath id="a"><path fill="#fff" d="M0 0h73.456v69.024H0z"/></clipPath></defs></svg>
